svgs/thin/light-switch.svg

<svg xmlns="http://www.w3.org/2000/svg" viewBox="0 0 384 512"><!--! Font Awesome Pro 6.6.0 by @fontawesome - https://fontawesome.com License - https://fontawesome.com/license (Commercial License) Copyright 2024 Fonticons, Inc. --><path d="M320 16c26.5 0 48 21.5 48 48l0 384c0 26.5-21.5 48-48 48L64 496c-26.5 0-48-21.5-48-48L16 64c0-26.5 21.5-48 48-48l256 0zM64 0C28.7 0 0 28.7 0 64L0 448c0 35.3 28.7 64 64 64l256 0c35.3 0 64-28.7 64-64l0-384c0-35.3-28.7-64-64-64L64 0zM272 368c0 17.7-14.3 32-32 32l-96 0c-17.7 0-32-14.3-32-32l0-104 160 0 0 104zM112 144c0-17.7 14.3-32 32-32l96 0c17.7 0 32 14.3 32 32l0 104-160 0 0-104zm32-48c-26.5 0-48 21.5-48 48l0 224c0 26.5 21.5 48 48 48l96 0c26.5 0 48-21.5 48-48l0-224c0-26.5-21.5-48-48-48l-96 0zm64-40a16 16 0 1 0 -32 0 16 16 0 1 0 32 0zm0 400a16 16 0 1 0 -32 0 16 16 0 1 0 32 0z"/></svg>

<svg xmlns="http://www.w3.org/2000/svg" viewBox="0 0 384 512"><!--! Font Awesome Pro 6.4.0 by @fontawesome - https://fontawesome.com License - https://fontawesome.com/license (Commercial License) Copyright 2023 Fonticons, Inc. --><path d="M320 16c26.5 0 48 21.5 48 48V448c0 26.5-21.5 48-48 48H64c-26.5 0-48-21.5-48-48V64c0-26.5 21.5-48 48-48H320zM64 0C28.7 0 0 28.7 0 64V448c0 35.3 28.7 64 64 64H320c35.3 0 64-28.7 64-64V64c0-35.3-28.7-64-64-64H64zM272 368c0 17.7-14.3 32-32 32H144c-17.7 0-32-14.3-32-32V264H272V368zM112 144c0-17.7 14.3-32 32-32h96c17.7 0 32 14.3 32 32V248H112V144zm32-48c-26.5 0-48 21.5-48 48V368c0 26.5 21.5 48 48 48h96c26.5 0 48-21.5 48-48V144c0-26.5-21.5-48-48-48H144zm64-40a16 16 0 1 0 -32 0 16 16 0 1 0 32 0zm0 400a16 16 0 1 0 -32 0 16 16 0 1 0 32 0z"/></svg>
